X: 4
T: The Pinch Of Snuff
R: reel
M: 4/4
L: 1/8
K: Dmaj
afge d2dB|ADFD EFGB|AGAB =cBcd|eA (3B^cd efge:||:f2df afdf|~f2df efge|1 f2df afdf|eA (3B^cd efge:|2 ~f3a afdf|eA (3B^cd efge|||:a2ge fd (3Bcd|ADFD EF~G2|~A3B =c3d|1 ed (3B^cd ef~g2:|2 ed (3B^cd efge|||:f2~f2 afdf|~f2df efge|f2df afdf|1 ed (3B^cd efge:|2 ed (3B^cd ef~g2


Tune 591	Setting 22355

